assets/img/img-pages/fran/planting-materials.svg

<svg width="85" height="85" viewBox="0 0 85 85" fill="none" xmlns="http://www.w3.org/2000/svg">
<path fill-rule="evenodd" clip-rule="evenodd" d="M52.3108 22.0278C50.1205 24.4415 49.1332 27.4382 49.034 29.925L55.2142 23.7448L56.605 25.1356L49.4709 32.2696C55.6226 31.9351 59.0525 29.4325 60.9139 26.4953C62.7488 23.5998 63.145 20.1463 62.9099 17.5726C57.8752 17.7658 54.4787 19.6389 52.3108 22.0278ZM47.1807 28.5829C46.6773 27.6706 46.0621 26.785 45.3246 25.9576C42.6749 22.9848 38.5094 20.8343 32.4847 20.8343H31.6435L31.5131 21.6653C31.0504 24.6153 31.317 29.0542 33.6864 32.793C35.975 36.4043 40.1316 39.2146 47.0588 39.4961V42.9023C46.7714 42.892 46.4858 42.89 46.202 42.8961C41.2522 43.0013 37.0847 45.5322 34.6041 47.9568L33.9747 47.687C32.9114 47.2313 31.7085 47.2275 30.6423 47.6764L27.0625 49.1837V47.3868V45.4199H25.0956H15.917H13.9501V47.3868V67.0553V69.0221H15.917H25.0956H27.0625V67.0553V62.6164L43.8618 69.45C44.8681 69.8594 45.9977 69.8414 46.9905 69.4002L65.9785 60.9611C68.3616 59.9019 69.3521 57.048 68.1374 54.7402C67.0531 52.68 64.5825 51.7882 62.4378 52.6676C58.0338 46.6134 53.3841 43.8447 49.0256 43.104V35.5857V34.2578C56.0593 34.0174 60.2672 31.1901 62.5752 27.5481C64.9447 23.8092 65.2113 19.3704 64.7485 16.4204L64.6182 15.5894H63.777C57.7531 15.5894 53.5468 17.739 50.8543 20.7061C48.6866 23.0948 47.5363 25.9732 47.1807 28.5829ZM47.0508 35.1703C46.9558 32.6743 46.0046 29.6764 43.8564 27.2663C41.7319 24.8827 38.3807 23.0107 33.3518 22.8176C33.1167 25.3912 33.5128 28.8447 35.3477 31.7402C37.1901 34.6473 40.5689 37.1287 46.6025 37.5036L39.4794 30.3805L40.8702 28.9897L47.0508 35.1703ZM46.2438 44.8625C42.2893 44.9465 38.8418 46.8235 36.5825 48.8046L48.1661 53.769C49.8114 54.4741 50.7207 56.157 50.5333 57.8326L60.5863 53.47C55.5879 46.7661 50.5106 44.7718 46.2438 44.8625ZM15.917 47.3868H25.0956V67.0553H15.917V47.3868ZM27.0625 60.4931L44.6029 67.6282C45.1139 67.836 45.6876 67.8269 46.1917 67.6028L65.1796 59.1637C66.5233 58.5665 67.0818 56.9574 66.3969 55.6563C65.7774 54.4791 64.3552 53.9785 63.1349 54.5081L48.7615 60.7456L48.7466 60.7113C47.706 61.3797 46.3719 61.5458 45.1477 61.0561L34.5646 56.8229L35.2951 54.9967L45.8781 59.2299C46.8329 59.6118 47.921 59.1981 48.3809 58.2784C48.8896 57.2608 48.4369 56.025 47.3913 55.5768L33.2 49.4948C32.6274 49.2495 31.9797 49.2474 31.4056 49.4891L27.0625 51.3178V60.4931Z" fill="#1D3557"/>
</svg>

<svg width="85" height="85" fill="none" xmlns="http://www.w3.org/2000/svg"><path fill-rule="evenodd" clip-rule="evenodd" d="M52.31 22.028c-2.19 2.414-3.177 5.41-3.276 7.897l6.18-6.18 1.391 1.39-7.134 7.135c6.152-.335 9.582-2.838 11.443-5.775 1.835-2.895 2.231-6.349 1.996-8.922-5.035.193-8.431 2.066-10.6 4.455Zm-5.13 6.555a14.39 14.39 0 0 0-1.855-2.625c-2.65-2.973-6.816-5.124-12.84-5.124h-.841l-.13.831c-.464 2.95-.197 7.39 2.172 11.128 2.289 3.611 6.446 6.422 13.373 6.703v3.406c-.288-.01-.573-.012-.857-.006-4.95.105-9.117 2.636-11.598 5.06l-.63-.269a4.262 4.262 0 0 0-3.332-.01l-3.58 1.507V45.42H13.95V69.022h13.112V62.616l16.8 6.834a3.996 3.996 0 0 0 3.128-.05l18.988-8.439a4.51 4.51 0 0 0-3.54-8.293c-4.404-6.055-9.054-8.823-13.412-9.564v-8.846c7.033-.24 11.241-3.068 13.55-6.71 2.369-3.739 2.635-8.178 2.173-11.128l-.13-.83h-.842c-6.024 0-10.23 2.149-12.923 5.116a14.8 14.8 0 0 0-3.673 7.877Zm-.13 6.587c-.094-2.496-1.045-5.494-3.194-7.904-2.124-2.383-5.475-4.255-10.504-4.448-.235 2.573.16 6.027 1.996 8.922 1.842 2.907 5.22 5.389 11.255 5.764l-7.124-7.123 1.391-1.391 6.18 6.18Zm-.806 9.692c-3.955.084-7.402 1.962-9.661 3.943l11.583 4.964a3.946 3.946 0 0 1 2.367 4.064l10.053-4.363c-4.998-6.704-10.075-8.698-14.342-8.608Zm-30.327 2.525h9.179v19.668h-9.179V47.387Zm11.146 13.106 17.54 7.135a2.03 2.03 0 0 0 1.589-.025l18.988-8.44a2.542 2.542 0 0 0-2.045-4.655l-14.373 6.238-.015-.035a3.942 3.942 0 0 1-3.6.345l-10.582-4.233.73-1.826 10.583 4.233a1.977 1.977 0 0 0 1.513-3.653L33.2 49.495a2.295 2.295 0 0 0-1.794-.006l-4.343 1.829v9.175Z" fill="#1D3557"/></svg>
